design-system/components/icon/icons/menu.svg

<svg height="40" viewBox="0 0 40 40" width="40" xmlns="http://www.w3.org/2000/svg">
    <path d="m26.0084 29.0956c1.656 0 2.998 1.343 2.998 2.999 0 1.5958929-1.2478546 2.9016735-2.8218198 2.9929079l-.1761802.0050921h-23.01c-1.656 0-2.998-1.343-2.998-2.998 0-1.5968571 1.24785459-2.9026722 2.82181979-2.9939079l.17618021-.0050921zm10.9932-12.0478c1.656 0 2.999 1.343 2.999 2.999 0 1.5958929-1.2487844 2.9016735-2.8228161 2.9929079l-.1761839.0050921h-34.003c-1.656 0-2.998-1.343-2.998-2.998 0-1.5968571 1.24785459-2.9026722 2.82181979-2.9939079l.17618021-.0050921zm-.0004-12.0478c1.656 0 2.999 1.343 2.999 2.998 0 1.59685714-1.2487844 2.9026722-2.8228161 2.9939079l-.1761839.0050921h-34.003c-1.656 0-2.998-1.343-2.998-2.999 0-1.59589286 1.24785459-2.90167347 2.82181979-2.99290794l.17618021-.00509206z" fill-rule="evenodd"/>
</svg>

<?xml version="1.0" encoding="UTF-8"?>
<svg width="40px" height="40px" viewBox="0 0 40 40" version="1.1" xmlns="http://www.w3.org/2000/svg" xmlns:xlink="http://www.w3.org/1999/xlink">
    <!-- Generator: Sketch 64 (93537) - https://sketch.com -->
    <title>icon/menu</title>
    <desc>Created with Sketch.</desc>
    <g id="icon/menu" stroke="none" stroke-width="1" fill="none" fill-rule="evenodd">
        <path d="M26.0084,29.0956 C27.6644,29.0956 29.0064,30.4386 29.0064,32.0946 C29.0064,33.6904929 27.7585454,34.9962735 26.1845802,35.0875079 L26.0084,35.0926 L2.9984,35.0926 C1.3424,35.0926 0.0004,33.7496 0.0004,32.0946 C0.0004,30.4977429 1.24825459,29.1919278 2.82221979,29.1006921 L2.9984,29.0956 L26.0084,29.0956 Z M37.0016,17.0478 C38.6576,17.0478 40.0006,18.3908 40.0006,20.0468 C40.0006,21.6426929 38.7518156,22.9484735 37.1777839,23.0397079 L37.0016,23.0448 L2.9986,23.0448 C1.3426,23.0448 0.0006,21.7018 0.0006,20.0468 C0.0006,18.4499429 1.24845459,17.1441278 2.82241979,17.0528921 L2.9986,17.0478 L37.0016,17.0478 Z M37.0012,5 C38.6572,5 40.0002,6.343 40.0002,7.998 C40.0002,9.59485714 38.7514156,10.9006722 37.1773839,10.9919079 L37.0012,10.997 L2.9982,10.997 C1.3422,10.997 0.0002,9.654 0.0002,7.998 C0.0002,6.40210714 1.24805459,5.09632653 2.82201979,5.00509206 L2.9982,5 L37.0012,5 Z" id="Shape" fill="#000000"></path>
    </g>
</svg>
